X: 2
T: Erin's Shore
M: 6/8
L: 1/8
K:Amix
A|e3/2f/g e2A|e2{e}c ~dcA|G3/2{A}G/F/G/ A2B|A3-A2a|
f3/2e/d e3/2f/g|a3/2g/f e2a|g3/2f/e ~dAB|G3-G2a|
f3/2e/d e3/2f/g|a3/2g/f e2a|g3/2f/e ~dAB|G3-G2A|
e3/2f/g e2A|e2{e}c ~dcA|G3/2{A}G/F/G/ A2B|A3-A2||
